!!!COM: Il Verso, Antonio
!!!CDT:
!!!OTL: Tarquinia, se rimiri
!!!PTL: Madrigali a cinque voci. Libro quarto
!!!PPP: Venice
!!!PPR: Amadino
!!!PDT: 1600
!!!PUB-format:
!!!RISM: I 8
!!!rime: 560
!!!AGN: Madrigal
!!!SCT: Trm0560m
!!!SCA: Trm0560m
!!!original-voices: 5
!!!extant-voices: 2
!!!complete: N
!!!final: A
**kern	**text	**kern	**text
*part2	*part2	*part1	*part1
*staff2	*staff2	*staff1	*staff1
*I"Basso	*	*I"Canto	*
*I'B	*	*I'C	*
*oclefF4	*	*oclefC1	*
*clefF4	*	*clefG2	*
*k[]	*	*k[]	*
*C:	*	*C:	*
*omet(C)	*	*omet(C)	*
*M4/2	*	*M4/2	*
=1	=1	=1	=1
0r	.	1r	.
.	.	1a	Men-
=2	=2	=2	=2
0r	.	2e	-tre,
.	.	4r	.
.	.	4a	mia
.	.	4g	stel-
.	.	4e	-la,
.	.	2a	mi-
=3	=3	=3	=3
0r	.	2g	-ri,
.	.	2r	.
.	.	4r	.
.	.	4ee	mia
.	.	4dd	stel-
.	.	4b	-la,
=4	=4	=4	=4
2r	.	2dd	mi-
2AA	I	4cc	-ri
.	.	4a	I
4C	bei	4g	bei
4D	ce-	4f	ce-
[2E	-le-	8eL	-le-
.	.	8f	.
.	.	8g	.
.	.	8aJ	.
=5	=5	=5	=5
4E]	.	4b	.
4AA	-sti	4cc	-sti
2D	gi-	8a	gi-
.	.	8aL	-ri,
.	.	8rJ	.
.	.	8aJL	I
1AA	-ri,	4.cc	bei
.	.	8dd	ce-
.	.	[2ee	-le-
=6	=6	=6	=6
0r	.	4ee]	.
.	.	8ddL	.
.	.	8ccJ	.
.	.	4b	.
.	.	4a	-sti
.	.	2b	gi-
.	.	2a	-ri,
=7	=7	=7	=7
1D	Men-	1a	Men-
2AA	-tre,	2a	-tre,
2D	mia	2a	mia
=8	=8	=8	=8
4.C	stel-	2.cc	stel-
8D	.	.	.
8EL	.	.	.
8FJ	.	.	.
2G	.	4b	-la,
.	.	2a	mi-
4F	-la,	.	.
2E	mi-	[2g#X	-ri
=9	=9	=9	=9
2E	-ri	2g#]	.
2r	.	4r	.
.	.	2a	I
1r	.	.	.
.	.	2ee	bei
.	.	4dd	ce-
=10	=10	=10	=10
4r	.	8eeL	-le-
.	.	8dd	.
4AA	ce-	8cc	.
.	.	8bJ	.
4.C	-le-	4a	.
.	.	2gnXi	-sti
8D	-sti	.	.
1E	gi-	.	.
.	.	4.a	gi-
.	.	16g#XL	.
.	.	16f#XJ	.
.	.	4g#X	.
=11	=11	=11	=11
2AA	-ri,	2a	-ri,
2r	.	4r	.
.	.	4b	Il
1r	.	4cc	cie-
.	.	4.ee	-lo es-
.	.	8ee	-ser
.	.	4dd	vor-
=12	=12	=12	=12
2r	.	2cc	-re-
4r	.	4b	-i;
4G	Per-	4b	Per-
4A	-ché	8cc	-ché
.	.	8dd	tu
4E	tu	8ee	ri-
.	.	8dd	-vol-
4F	ri-	4cc	-ges-
4G	-vol-	4b	-si
=13	=13	=13	=13
4.A	-ges-	2a	Fi-
8G	.	.	.
8AL	.	2a	-so,
8BJ	.	.	.
2c	.	.	.
.	.	2r	.
4B	.	.	.
4c	-si	4r	.
8B	Fi-	4g	Per-
8c	-so	.	.
=14	=14	=14	=14
4A	ne i	4a	-ché
4G	lu-	4e	tu
1F	-mi	8f	ri-
.	.	8g	-vol-
.	.	2a	-ges-
.	.	4a	-si
2G	miei	2g	Fi-
=15	=15	=15	=15
0r	.	4f	-so
.	.	4e	ne i
.	.	4a	lu-
.	.	4g	-mi
.	.	2f	mie-
.	.	[2e	-i
=16	=16	=16	=16
0r	.	2e]	.
.	.	4r	.
.	.	2a	Le
.	.	4a	tue
.	.	4.f#X	dol-
.	.	8f#X	-ci
=17	=17	=17	=17
1r	.	4g#X	fa-
.	.	4.a	-vil-
.	.	16g#XL	.
.	.	16f#XJ	.
.	.	4g#X	.
4r	.	2a	-le,
2A	Le	.	.
.	.	4r	.
4G	tue	[4dd	Le
=18	=18	=18	=18
2F#X	dol-	4dd]	.
.	.	4cc	tue
4G	-ci	2b	dol-
4G	fa-	.	.
2A	-vil-	4a	-ci
.	.	4a	fa-
2E	-le,	2g#X	-vil-
=19	=19	=19	=19
0r	.	4a	-le,
.	.	4a	Io
.	.	4b	va-
.	.	4cc	-gheg-
.	.	8aL	-giar
.	.	8bJ	.
.	.	2cc	.
.	.	4cc	po-
=20	=20	=20	=20
2r	.	2dd	-tes-
4r	.	4g	-si
4.C	Mil-	4.e	Mil-
8C	-le	8e	-le
4C	bel-	4e	bel-
4D	-lez-	4f	-lez-
4E	-ze	4g	-ze
=21	=21	=21	=21
4AA	tue	4a	tue
4A	con	4a	con
4G	oc-	4b	oc-
4F	-chi	4cc	-chi
2E	mil-	4ee	mil-
.	.	4ee	-le,
2AA	-le,	4r	.
.	.	4ee	con
=22	=22	=22	=22
1r	.	4dd	oc-
.	.	4cc	-chi
.	.	8bL	mil-
.	.	8aJ	.
.	.	4.a	.
2r	.	.	.
.	.	16g#XL	.
.	.	16f#XJ	.
.	.	4g#X	.
4r	.	2a	-le,
[4A	Mil-	.	.
=23	=23	=23	=23
8A]	.	1r	.
8A	-le	.	.
4A	bel-	.	.
4c	-lez-	.	.
4G	-ze	.	.
2.A	tue	4r	.
.	.	4.a	Mil-
.	.	8a	-le
4G	con	4b	bel-
=24	=24	=24	=24
4F	oc-	4cc	-lez-
4D	-chi	4dd	-ze
4E	mil-	4cc	tue
4E	-le,	4b	con
4r	.	4ee	oc-
4C	con	4cc	-chi
4G	oc-	4dd	mil-
4A	-chi	4a	-le,
=25	=25	=25	=25
2D	mil-	1r	.
2E	-le,	.	.
4r	.	4r	.
4.C	Mil-	4.ee	Mil-
8C	-le	8ee	-le
4C	bel-	4ee	bel-
=26	=26	=26	=26
4G	-lez-	4dd	-lez-
4E	-ze	4cc	-ze
2D	tue	2dd	tue
4C	con	2r	.
4.C	oc-	.	.
.	.	4r	.
8DL	.	.	.
8E	.	4cc	con
8FJ	.	.	.
=27	=27	=27	=27
2G	.	8bL	oc-
.	.	8a	.
.	.	8g	.
.	.	8fJ	.
2A	-chi	4e	.
.	.	4a	-chi
1E	mil-	4g#X	mil-
.	.	4.a	.
.	.	16g#XL	.
.	.	16f#XJ	.
.	.	4g#X	.
=28	=28	=28	=28
0AAl	-le.	0al	-le.
==	==	==	==
*-	*-	*-	*-
!!!system-decoration: [*]
!!!RDF**kern: i = editorial accidental
!!!RDF**kern: l = terminal long
!!!ENC: Emiliano Ricciardi
!!!END: 2019/01/01
!!!EED: Ricciardi, Emiliano
!!!EEV: 2019/01/14
!!!YEC: Copyright 2018 Emiliano Ricciardi, All Rights Reserved
!!!ONB: Translated from MusicXML on 2019/01/14 and edited by Craig Stuart Sapp
!!@@BEGIN:	VERSEDATA
!!@SOLERTI:	560
!!@CATALOGNUM:	Trm0560
!!@LAST_MODIFIED: 2020/07/12
!!@TITLE:		Tarquinia, se rimiri
!!@GENRE:		madrigale
!!@MANUSRC:	A<sub>3</sub>, C, E<sub>1</sub>, E<sub>7</sub>, F<sub>2</sub>, V<sub>8</sub>, V<sub>9</sub>, V<sub>13/E1</sub>
!!@PRINTSRC:	8, 9, 11, 12, 13, 15, 20, 24, 33, 67, 141, 145, 166, 169
!!@@BEGIN:	VERSES
!!@ABOUTIT:	A la signora Tarquinia Molza la quale studiando la sfera andava la sera a contemplar le stelle.
!!@ABOUTEN:	To lady Tarquinia Molza who, studying the globe, went to contemplate the stars at night.
!!@EDITOR:	Solerti, Angelo
!!@EDITION_TITLE: Le Rime di Torquato Tasso
!!@EDITION_LOC:	Bologna
!!@EDITION_PUB:	Romagnoli-Dall’Acqua
!!@EDITION_DATE:  1898-1902
!!@EDITION_VOL:	3
!!@EDITION_PAGE:  79
!!@TRANSLATOR:	Emiliano Ricciardi and Amyrose McCue Gill
!!@VERSE:
!!	Tarquinia, se rimiri
!!	I bei celesti giri,
!!	Il cielo esser vorrei;
!!	Perché ne gli occhi miei
!!	Fisso tu rivolgessi
!!	Le tue dolci faville,
!!	Io vagheggiar potessi
!!	Mille bellezze tue con luci mille.
!!@TVERSE:
!!	Tarquinia, if I look upon
!!	The beautiful blue spheres,
!!	The sky I wish to be;
!!	So that to my eyes
!!	Raptly you may turn
!!	Your sweet sparks,
!!	And I may long for
!!	Your thousand beauties with a thousand 	lights.
!!@@END:		VERSES
!!@OTHER_CRIT_ED:   Torquato Tasso, <i>Rime d’amore (secondo il codice
!!		Chigiano L VIII 302)</i>, eds. Franco Gavazzeni and
!!		Vercingetorige Martignone, vol. 4 of <i>Edizione
!!		Nazionale delle opere di Torquato Tasso</i>
!!		(Alessandria: Edizioni Dell’Orso, 2004), 171.
!!@ATTRIBUTION_ABOUT:	Secure
!!		<br>
!!		Among other authoritative sources (see Literary
!!		Sources), this poem appears in the autograph Chigiano
!!		L.VIII.302 (Biblioteca Vaticana, Rome), compiled
!!		around 1584&ndash;85.
!!@DATING:	In or before 1571
!!		<br>
!!		The earliest datable appearance of this poem is in a musical setting by Ferrarese composer Luzzasco Luzzaschi published in 1571 (see Musical Settings). In this setting, the text is subtantially different than in later musical and literary sources (see Literary Variants).
!!@DEDICATEE:	Molza, Tarquinia Molza
!!@DEDICATEE_INFO:	(1542-1617)
!!@COMMENTARY:
!!@@END:		VERSEDATA
!!@@BEGIN:	SETTING
!!@CATALOGNUM:	Trm0560m
!!@RIMETITLE:	Tarquinia, se rimiri
!!@SETTINGTITLE:	Mentre, mia stella, miri
!!@SOLERTI:	560
!!@COMPOSER:	Il Verso, Antonio
!!@PRINCEPSTITLE:	Madrigali a cinque voci. Libro quarto
!!@PRINCEPSLOC:	Venetia
!!@NORMLOC:	Venice
!!@NORMPUB:	Amadino
!!@NORMPUBSHORT:	Amadino
!!@PRINCEPSPUB:	Amadino
!!@PRINCEPSYEAR:	1600
!!@PRINCEPSRISM:	I 8
!!@REPRINTS:	
!!@OVOICES:	5
!!@EXTANTVOICES:	2
!!@PARTBOOKS:	
!!@EXTPARTBOOKS:	
!!@OCLEFS:	C1,F4
!!@OMENSURATION:	C
!!@OKEYSIG:	-
!!@FINAL:	A
!!@TIMPEDITOR:	Ricciardi, Emiliano
!!@NOTE:		
!!@@END:		SETTING
